cssgg/credit-card.svg

<svg
  width="24"
  height="24"
  viewBox="0 0 24 24"
  fill="none"
  xmlns="http://www.w3.org/2000/svg"
>
  <path
    d="M4 9C4 8.44772 4.44772 8 5 8H9C9.55228 8 10 8.44772 10 9C10 9.55228 9.55228 10 9 10H5C4.44772 10 4 9.55228 4 9Z"
    fill="currentColor"
  />
  <path
    fill-rule="evenodd"
    clip-rule="evenodd"
    d="M4 3C1.79086 3 0 4.79086 0 7V17C0 19.2091 1.79086 21 4 21H20C22.2091 21 24 19.2091 24 17V7C24 4.79086 22.2091 3 20 3H4ZM20 5H4C2.89543 5 2 5.89543 2 7V14H22V7C22 5.89543 21.1046 5 20 5ZM22 16H2V17C2 18.1046 2.89543 19 4 19H20C21.1046 19 22 18.1046 22 17V16Z"
    fill="currentColor"
  />
</svg>

<svg viewBox="0 0 24 24" xmlns="http://www.w3.org/2000/svg"><g><path d="M4 9c0-.56.44-1 1-1h4c.55 0 1 .44 1 1 0 .55-.45 1-1 1H5c-.56 0-1-.45-1-1Z"/><path fill-rule="evenodd" d="M4 3C1.79 3 0 4.79 0 7v10c0 2.2 1.79 4 4 4h16c2.2 0 4-1.8 4-4V7c0-2.21-1.8-4-4-4H4Zm16 2H4c-1.11 0-2 .89-2 2v7h20V7c0-1.11-.9-2-2-2Zm2 11H2v1c0 1.1.89 2 2 2h16c1.1 0 2-.9 2-2v-1Z"/></g></svg>
